packages/assets/static/images/icons/person-simple-circle.svg

<svg width="24" height="24" viewBox="0 0 24 24" xmlns="http://www.w3.org/2000/svg">
<path d="M12 2.25C10.0716 2.25 8.18657 2.82183 6.58319 3.89317C4.97982 4.96451 3.73013 6.48726 2.99218 8.26884C2.25422 10.0504 2.06114 12.0108 2.43735 13.9021C2.81355 15.7934 3.74215 17.5307 5.10571 18.8943C6.46928 20.2579 8.20656 21.1865 10.0979 21.5627C11.9892 21.9389 13.9496 21.7458 15.7312 21.0078C17.5127 20.2699 19.0355 19.0202 20.1068 17.4168C21.1782 15.8134 21.75 13.9284 21.75 12C21.7473 9.41498 20.7192 6.93661 18.8913 5.10872C17.0634 3.28084 14.585 2.25273 12 2.25ZM12 20.25C10.3683 20.25 8.77326 19.7661 7.41655 18.8596C6.05984 17.9531 5.00242 16.6646 4.378 15.1571C3.75358 13.6496 3.5902 11.9908 3.90853 10.3905C4.22685 8.79016 5.01259 7.32015 6.16637 6.16637C7.32016 5.01259 8.79017 4.22685 10.3905 3.90852C11.9909 3.59019 13.6497 3.75357 15.1571 4.37799C16.6646 5.00242 17.9531 6.05984 18.8596 7.41655C19.7661 8.77325 20.25 10.3683 20.25 12C20.2475 14.1873 19.3775 16.2843 17.8309 17.8309C16.2843 19.3775 14.1873 20.2475 12 20.25ZM10.5 7.5C10.5 7.20333 10.588 6.91332 10.7528 6.66665C10.9176 6.41997 11.1519 6.22771 11.426 6.11418C11.7001 6.00065 12.0017 5.97094 12.2926 6.02882C12.5836 6.0867 12.8509 6.22956 13.0607 6.43934C13.2704 6.64912 13.4133 6.91639 13.4712 7.20736C13.5291 7.49834 13.4994 7.79994 13.3858 8.07403C13.2723 8.34811 13.08 8.58238 12.8334 8.7472C12.5867 8.91203 12.2967 9 12 9C11.6022 9 11.2206 8.84196 10.9393 8.56066C10.658 8.27936 10.5 7.89782 10.5 7.5ZM17.25 10.5C17.25 10.6989 17.171 10.8897 17.0303 11.0303C16.8897 11.171 16.6989 11.25 16.5 11.25H12.75V12.5231L15.6244 16.8356C15.7348 17.0012 15.7749 17.2039 15.7358 17.399C15.6968 17.5942 15.5818 17.7659 15.4163 17.8762C15.2507 17.9866 15.048 18.0267 14.8528 17.9877C14.6577 17.9487 14.486 17.8337 14.3756 17.6681L12 14.1056L9.62438 17.6681C9.56972 17.7501 9.49944 17.8205 9.41756 17.8754C9.33568 17.9302 9.2438 17.9684 9.14717 17.9877C8.95202 18.0267 8.74935 17.9866 8.58375 17.8762C8.41816 17.7659 8.3032 17.5942 8.26417 17.399C8.22514 17.2039 8.26523 17.0012 8.37563 16.8356L11.25 12.5231V11.25H7.5C7.30109 11.25 7.11033 11.171 6.96967 11.0303C6.82902 10.8897 6.75 10.6989 6.75 10.5C6.75 10.3011 6.82902 10.1103 6.96967 9.96967C7.11033 9.82902 7.30109 9.75 7.5 9.75H16.5C16.6989 9.75 16.8897 9.82902 17.0303 9.96967C17.171 10.1103 17.25 10.3011 17.25 10.5Z"/>
</svg>

<svg viewBox="0 0 24 24" xmlns="http://www.w3.org/2000/svg" aria-hidden="true" fill="currentColor"><path d="M12 2.25A9.75 9.75 0 1 0 21.75 12 9.76 9.76 0 0 0 12 2.25m0 18A8.25 8.25 0 1 1 20.25 12 8.26 8.26 0 0 1 12 20.25M10.5 7.5a1.5 1.5 0 1 1 3 0 1.5 1.5 0 0 1-3 0m6.75 3a.75.75 0 0 1-.75.75h-3.75v1.273l2.874 4.313a.75.75 0 1 1-1.248.832L12 14.106l-2.376 3.562a.751.751 0 0 1-1.248-.832l2.874-4.313V11.25H7.5a.75.75 0 1 1 0-1.5h9a.75.75 0 0 1 .75.75"/></svg>
